X:49
T:H'll on the Wabash
M:2/4
Q:1/4=100
L:1/16
K:A
%%MIDI channel 1
%%MIDI program 72
%%MIDI transpose 8
%%MIDI grace 1/8
%%MIDI ratio 3 1
(3(efg)|a2a2 A2zB|cdec A2zf|=g2g2 G2zA|B=cdB =G2z^g|a2a2 A2zB|cdec A2 (3(BAG)
Ac (3(efg) aefd|cABG A2::A2|ce z e eecA|ce z e eecA|Bd z d ddB=G|
Bd z d ddB=G|ce z e eecA|ce z e eecA|Ac (3(efg) aefd|cABG A2:|

